picto/emergency-exit-left.svg

<svg class="color-immutable" width="24" height="24" viewBox="0 0 24 24" fill="none" xmlns="http://www.w3.org/2000/svg"><path d="M0 22.5V1.5C0 0.675 0.675 0 1.5 0H22.5C23.325 0 24 0.675 24 1.5V22.5C24 23.325 23.325 24 22.5 24H1.5C0.675 24 0 23.325 0 22.5Z" fill="#237F52"/><path d="M4.06494 3V19.757L5.31294 21H9.10394L8.55394 20.414C8.29694 20.138 8.42094 19.81 8.83194 19.681C9.24394 19.551 9.78594 19.67 10.0429 19.944L11.0329 21H17.0559L15.8159 19.757V15.392L18.8989 15.393C19.4719 15.391 19.9349 14.929 19.9349 14.356C19.9349 13.785 19.4719 13.321 18.8989 13.321H15.8159V3H4.06494ZM7.20694 5.963C7.20694 6.708 6.60194 7.313 5.85794 7.313C5.11194 7.313 4.50694 6.708 4.50694 5.963C4.50694 5.217 5.11194 4.613 5.85794 4.613C6.60194 4.613 7.20694 5.217 7.20694 5.963ZM4.31894 11.413C4.31894 11.125 4.55094 10.894 4.83894 10.894H6.81194V8.47C6.81194 7.515 7.58694 6.738 8.54494 6.738H10.9649C11.1489 6.738 11.3259 6.812 11.4549 6.942L13.4979 8.985C13.5889 9.075 13.6399 9.198 13.6399 9.328C13.6399 9.595 13.4229 9.812 13.1549 9.812C13.0259 9.812 12.9029 9.762 12.8109 9.671L10.8839 7.743H9.51394L15.4359 13.666H18.8999C19.2829 13.666 19.5919 13.976 19.5919 14.359C19.5919 14.741 19.2829 15.051 18.8999 15.051H15.0509C14.8669 15.051 14.6919 14.98 14.5619 14.849L11.8109 12.098L9.20294 14.704V18.513C9.20294 18.895 8.89194 19.206 8.50994 19.206C8.12794 19.206 7.81794 18.895 7.81794 18.513V14.32C7.81794 14.135 7.88994 13.96 8.01994 13.829L10.0949 11.754L7.81794 9.474V11.413C7.81794 11.701 7.58494 11.933 7.29794 11.933H4.83994C4.55194 11.933 4.31894 11.701 4.31894 11.413Z" fill="white"/></svg>

<svg class="color-immutable" width="24" height="24" viewBox="0 0 24 24" fill="none" xmlns="http://www.w3.org/2000/svg"><g clip-path="url(#a)"><path d="M0 22.5v-21C0 .675.675 0 1.5 0h21c.825 0 1.5.675 1.5 1.5v21c0 .825-.675 1.5-1.5 1.5h-21C.675 24 0 23.325 0 22.5Z" fill="#237F52"/><path d="M4.065 3v16.757L5.313 21h3.79l-.55-.586c-.256-.276-.132-.604.279-.733.412-.13.954-.011 1.21.263l.99 1.056h6.024l-1.24-1.243v-4.365l3.083.001a1.037 1.037 0 0 0 0-2.072h-3.083V3H4.065Zm3.142 2.963a1.35 1.35 0 1 1-2.701-.001 1.35 1.35 0 0 1 2.7.001Zm-2.888 5.45c0-.288.232-.519.52-.519h1.973V8.47c0-.955.775-1.732 1.733-1.732h2.42c.184 0 .36.074.49.204l2.043 2.043a.485.485 0 1 1-.687.686l-1.927-1.928h-1.37l5.922 5.923H18.9a.692.692 0 1 1 0 1.385h-3.85a.685.685 0 0 1-.488-.202l-2.751-2.751-2.608 2.606v3.809a.693.693 0 0 1-1.385 0V14.32c0-.185.072-.36.202-.491l2.075-2.075-2.277-2.28v1.939a.52.52 0 0 1-.52.52H4.84a.52.52 0 0 1-.521-.52Z" fill="#fff"/></g><defs><clipPath id="a"><path fill="#fff" d="M0 0h24v24H0z"/></clipPath></defs></svg>
